X: 3030
M: 3/4
L: 1/8
K: Am
z2 |\
cB  cd  c2 | B2  B2  E2 | A2 B2 ^G2 | A4 :: e2 |\
d2 (cB) e2 | c2 (BA) B2 | c2 (d3c/d/) | He4 |]


